images/icons8-linkedin.svg

<?xml version="1.0" encoding="UTF-8"?>
<svg xmlns="http://www.w3.org/2000/svg" xmlns:xlink="http://www.w3.org/1999/xlink" viewBox="0 0 30 30" width="30px" height="30px">
<g id="surface69043328">
<path style=" stroke:none;fill-rule:nonzero;fill:rgb(100%,100%,100%);fill-opacity:1;" d="M 24 4 L 6 4 C 4.894531 4 4 4.894531 4 6 L 4 24 C 4 25.105469 4.894531 26 6 26 L 24 26 C 25.105469 26 26 25.105469 26 24 L 26 6 C 26 4.894531 25.105469 4 24 4 Z M 10.953125 22 L 8.003906 22 L 8.003906 12.507812 L 10.953125 12.507812 Z M 9.449219 11.152344 C 8.496094 11.152344 7.730469 10.378906 7.730469 9.429688 C 7.730469 8.480469 8.5 7.710938 9.449219 7.710938 C 10.398438 7.710938 11.167969 8.484375 11.167969 9.429688 C 11.167969 10.378906 10.398438 11.152344 9.449219 11.152344 Z M 22.003906 22 L 19.054688 22 L 19.054688 17.382812 C 19.054688 16.28125 19.035156 14.867188 17.523438 14.867188 C 15.988281 14.867188 15.753906 16.066406 15.753906 17.304688 L 15.753906 22 L 12.804688 22 L 12.804688 12.507812 L 15.632812 12.507812 L 15.632812 13.804688 L 15.675781 13.804688 C 16.066406 13.058594 17.03125 12.273438 18.464844 12.273438 C 21.453125 12.273438 22.003906 14.238281 22.003906 16.792969 Z M 22.003906 22 "/>
</g>
</svg>

<?xml version="1.0"?><svg fill="#000000" xmlns="http://www.w3.org/2000/svg"  viewBox="0 0 30 30" width="30px" height="30px">    <path d="M24,4H6C4.895,4,4,4.895,4,6v18c0,1.105,0.895,2,2,2h18c1.105,0,2-0.895,2-2V6C26,4.895,25.105,4,24,4z M10.954,22h-2.95 v-9.492h2.95V22z M9.449,11.151c-0.951,0-1.72-0.771-1.72-1.72c0-0.949,0.77-1.719,1.72-1.719c0.948,0,1.719,0.771,1.719,1.719 C11.168,10.38,10.397,11.151,9.449,11.151z M22.004,22h-2.948v-4.616c0-1.101-0.02-2.517-1.533-2.517 c-1.535,0-1.771,1.199-1.771,2.437V22h-2.948v-9.492h2.83v1.297h0.04c0.394-0.746,1.356-1.533,2.791-1.533 c2.987,0,3.539,1.966,3.539,4.522V22z"/></svg>
